theme-map4trip/src/main/assets/themes/mapsforgeV3/map4trip/symbols/hotel.svg

<svg enable-background="new 0 0 18.6 18.6" height="18.6" viewBox="0 0 18.6 18.6" width="18.6" xmlns="http://www.w3.org/2000/svg"><path d="m.5 11.9c0 1 2.1 1 2.1 0v-2.1l5.2 4.2v3.1c0 1 2.1 1 2.1 0v-3.1h6.2v3.1c0 1 2.101 1 2.101 0v-5.2h-9.401l-7.2-6.2c.8-2.1 8.3-2.1 9.3-1v-3.1c0-1-2.1-1-2.1 0v1h-6.2v-1c0-1-2.1-1-2.1 0zm2.1-5.2c1-2.101 7.2-2.101 9.3 0l6.2 5.199c-2.1-2.1-9.3-2.1-9.3 0z"/></svg>

<?xml version="1.0" encoding="utf-8"?>
<!-- Generator: Adobe Illustrator 14.0.0, SVG Export Plug-In . SVG Version: 6.00 Build 43363)  -->
<!DOCTYPE svg PUBLIC "-//W3C//DTD SVG 1.1//EN" "http://www.w3.org/Graphics/SVG/1.1/DTD/svg11.dtd">
<svg version="1.1"
	 id="hotel" xmlns:xs="http://www.w3.org/2001/XMLSchema" xmlns:inkscape="http://www.inkscape.org/namespaces/inkscape" xmlns:rdf="http://www.w3.org/1999/02/22-rdf-syntax-ns#" xmlns:svg="http://www.w3.org/2000/svg" xmlns:xi="http://www.w3.org/2001/XInclude" xmlns:cc="http://web.resource.org/cc/" xmlns:dc="http://purl.org/dc/elements/1.1/"
	 xmlns="http://www.w3.org/2000/svg" xmlns:xlink="http://www.w3.org/1999/xlink" x="0px" y="0px" width="18.6px" height="18.6px"
	 viewBox="0 0 18.6 18.6" enable-background="new 0 0 18.6 18.6" xml:space="preserve">
<path d="M0.5,11.9c0,1,2.1,1,2.1,0V9.8L7.8,14v3.1c0,1,2.1,1,2.1,0V14h6.2v3.1c0,1,2.101,1,2.101,0v-5.2H8.8L1.6,5.7
	C2.4,3.6,9.9,3.6,10.9,4.7V1.6c0-1-2.1-1-2.1,0v1H2.6v-1c0-1-2.1-1-2.1,0V11.9z M2.6,6.7c1-2.101,7.2-2.101,9.3,0l6.2,5.199
	c-2.1-2.1-9.3-2.1-9.3,0L2.6,6.7z"/>
</svg>
